X:5
T: Andy Duffy's
C: Jerry O'Sullivan
Z: B.Black
R: jig
M: 6/8
L: 1/8
K: G
GED DEG | dge dBG | c2 A BAG | AGE E2 D |
GED DEG | dge dBG | c2 A BdB | AGF GBd :|
g3  GBd | g3  edB | c2 A BAG | AGE E2 D |
|1 g3 GBd | g3 edB | c2 A BdB | AGF GBd :|
|2 GED DEG | dge dBG | c2 A BdB | AGE G2 ||
